src/assets/images/skills/maths.svg

<?xml version="1.0" encoding="UTF-8" standalone="no"?>
<svg width="64px" height="64px" viewBox="0 0 64 64" version="1.1" xmlns="http://www.w3.org/2000/svg" xmlns:xlink="http://www.w3.org/1999/xlink">
    <defs></defs>
    <g id="Skills---Data" stroke="none" stroke-width="1" fill="none" fill-rule="evenodd">
        <g id="icons/skills/id-274">
            <rect id="Rectangle-7" fill="#A3A18F" x="9" y="9" width="50" height="50" rx="4"></rect>
            <rect id="Rectangle-7" fill="#EAE2C0" x="5" y="5" width="50" height="50" rx="4"></rect>
            <path d="M18.6,26 L16.904,26 L14.472,20.928 L13.656,21.328 L13,19.888 L15.368,18.8 L17.432,23.168 L20.12,10 L21.976,10 L18.6,26 Z" id="Type-something" fill="#394146"></path>
            <path d="M14,45.5784753 L17.632287,36 L19.1793722,36 L23,45.5784753 L14,45.5784753 Z M18.3856502,37.7623318 L16.058296,44.1793722 L20.8744395,44.1793722 L18.3856502,37.7623318 Z" id="Type-something" fill="#394146"></path>
            <path d="M49.775,41.401 C49.775,41.8823357 49.7021674,42.3319979 49.5565,42.75 C49.4108326,43.1680021 49.1986681,43.5353318 48.92,43.852 C48.6413319,44.1686682 48.3056686,44.4156658 47.913,44.593 C47.5203314,44.7703342 47.0706692,44.859 46.564,44.859 C46.1713314,44.859 45.8040017,44.7988339 45.462,44.6785 C45.1199983,44.5581661 44.8001682,44.3998343 44.5025,44.2035 C44.2048318,44.0071657 43.9230013,43.7823346 43.657,43.529 C43.3909987,43.2756654 43.1376679,43.0096681 42.897,42.731 C42.6309987,43.0096681 42.368168,43.2756654 42.1085,43.529 C41.848832,43.7823346 41.5765014,44.0071657 41.2915,44.2035 C41.0064986,44.3998343 40.6961683,44.5549994 40.3605,44.669 C40.0248317,44.7830006 39.6543354,44.84 39.249,44.84 C38.7549975,44.84 38.3053354,44.7513342 37.9,44.574 C37.4946646,44.3966658 37.1526681,44.1560015 36.874,43.852 C36.5953319,43.5479985 36.3800008,43.1870021 36.228,42.769 C36.0759992,42.3509979 36,41.9013357 36,41.42 C36,40.951331 36.0728326,40.5080021 36.2185,40.09 C36.3641674,39.6719979 36.5731653,39.3110015 36.8455,39.007 C37.1178347,38.7029985 37.4503314,38.4623342 37.843,38.285 C38.2356686,38.1076658 38.6789975,38.019 39.173,38.019 C39.5910021,38.019 39.9741649,38.0823327 40.3225,38.209 C40.6708351,38.3356673 40.9938318,38.503499 41.2915,38.7125 C41.5891682,38.921501 41.867832,39.1621653 42.1275,39.4345 C42.387168,39.7068347 42.6436654,39.9886652 42.897,40.28 C43.1376679,39.9886652 43.387832,39.7068347 43.6475,39.4345 C43.907168,39.1621653 44.1858318,38.9183344 44.4835,38.703 C44.7811682,38.4876656 45.1041649,38.3166673 45.4525,38.19 C45.8008351,38.0633327 46.1776646,38 46.583,38 C47.0770025,38 47.5203314,38.0886658 47.913,38.266 C48.3056686,38.4433342 48.6413319,38.6839985 48.92,38.988 C49.1986681,39.2920015 49.4108326,39.6529979 49.5565,40.071 C49.7021674,40.4890021 49.775,40.932331 49.775,41.401 L49.775,41.401 Z M48.065,41.458 C48.065,41.0019977 47.9320013,40.6156682 47.666,40.299 C47.3999987,39.9823318 47.0263357,39.824 46.545,39.824 C46.2916654,39.824 46.0478345,39.8778328 45.8135,39.9855 C45.5791655,40.0931672 45.3511678,40.2293325 45.1295,40.394 C44.9078322,40.5586675 44.6988343,40.7391657 44.5025,40.9355 C44.3061657,41.1318343 44.1320008,41.3123325 43.98,41.477 C44.1446675,41.667001 44.3219991,41.8538324 44.512,42.0375 C44.7020009,42.2211676 44.9078322,42.3858326 45.1295,42.5315 C45.3511678,42.6771674 45.5854988,42.7974995 45.8325,42.8925 C46.0795012,42.9875005 46.3359987,43.035 46.602,43.035 C47.070669,43.035 47.4316654,42.8830015 47.685,42.579 C47.9383346,42.2749985 48.065,41.9013355 48.065,41.458 L48.065,41.458 Z M41.795,41.477 C41.6429992,41.3123325 41.4656677,41.135001 41.263,40.945 C41.0603323,40.7549991 40.8450011,40.5776675 40.617,40.413 C40.3889989,40.2483325 40.1515012,40.1121672 39.9045,40.0045 C39.6574988,39.8968328 39.4136679,39.843 39.173,39.843 C38.7296645,39.843 38.3750013,40.0044984 38.109,40.3275 C37.8429987,40.6505016 37.71,41.0273312 37.71,41.458 C37.71,41.926669 37.8461653,42.3034986 38.1185,42.5885 C38.3908347,42.8735014 38.761331,43.016 39.23,43.016 C39.4706679,43.016 39.7113321,42.9685005 39.952,42.8735 C40.1926679,42.7784995 40.4238322,42.6581674 40.6455,42.5125 C40.8671678,42.3668326 41.0761657,42.2021676 41.2725,42.0185 C41.4688343,41.8348324 41.6429992,41.6543342 41.795,41.477 L41.795,41.477 Z" id="∞" fill="#394146"></path>
            <path d="M47.3339844,15.8603516 L43.4960938,17.6035156 C43.6816416,18.4531292 43.7744141,19.1123023 43.7744141,19.5810547 C43.7744141,20.0302757 43.6816416,20.7089798 43.4960938,21.6171875 L47.3486328,23.3603516 L46.7480469,24.7226562 L43.0126953,23.0820312 C42.6708967,23.8144568 42.2558618,24.4882782 41.7675781,25.1035156 L40.6103516,24.1953125 C41.0107442,23.6484348 41.3525376,23.0869169 41.6357422,22.5107422 L35,19.5664062 L41.6357422,16.6513672 C41.3037093,16.0068327 40.9326192,15.4160183 40.5224609,14.8789062 L41.7089844,14 C42.109377,14.4687523 42.5390602,15.1474565 42.9980469,16.0361328 L46.7041016,14.4248047 L47.3339844,15.8603516 Z M42.1337891,18.1894531 L38.9550781,19.5810547 L42.1191406,20.9873047 C42.2070317,20.3720672 42.2509766,19.8886736 42.2509766,19.5371094 C42.2509766,19.2148421 42.2119145,18.7656279 42.1337891,18.1894531 L42.1337891,18.1894531 Z" id="Type-something" fill="#394146"></path>
            <path d="M30,16 L30,44" id="Stroke-1191" stroke="#A3A18F" stroke-width="2" stroke-linecap="round" stroke-linejoin="round"></path>
            <path d="M16,30 L44,30" id="Stroke-1192" stroke="#A3A18F" stroke-width="2" stroke-linecap="round" stroke-linejoin="round"></path>
        </g>
    </g>
</svg>

<svg xmlns="http://www.w3.org/2000/svg" width="64" height="64" fill="none" fill-rule="evenodd" xmlns:v="https://vecta.io/nano"><rect fill="#a3a18f" x="9" y="9" width="50" height="50" rx="4"/><rect fill="#eae2c0" x="5" y="5" width="50" height="50" rx="4"/><path d="M18.6 26h-1.696l-2.432-5.072-.816.4-.656-1.44 2.368-1.088 2.064 4.368L20.12 10h1.856L18.6 26zM14 45.578L17.632 36h1.547L23 45.578h-9zm4.386-7.816L16.06 44.18h4.816l-2.5-6.417zm31.39 3.638a4.07 4.07 0 0 1-.218 1.349c-.146.418-.358.785-.636 1.102a2.93 2.93 0 0 1-1.007.741c-.393.177-.842.266-1.35.266-.393 0-.76-.06-1.102-.18a4.37 4.37 0 0 1-.96-.475c-.298-.196-.58-.42-.846-.674l-.76-.798-.788.798c-.26.253-.532.478-.817.674a3.77 3.77 0 0 1-.931.465 3.44 3.44 0 0 1-1.111.171 3.33 3.33 0 0 1-1.349-.266c-.405-.177-.747-.418-1.026-.722a3.2 3.2 0 0 1-.646-1.083C36.076 42.35 36 41.9 36 41.42c0-.47.073-.912.218-1.33a3.16 3.16 0 0 1 .627-1.083 2.95 2.95 0 0 1 .998-.722c.393-.177.836-.266 1.33-.266a3.34 3.34 0 0 1 1.149.19 4.14 4.14 0 0 1 .969.503 5.68 5.68 0 0 1 .836.722l.77.846.75-.846a6.07 6.07 0 0 1 .836-.731 3.95 3.95 0 0 1 .97-.513c.35-.127.725-.2 1.13-.2a3.22 3.22 0 0 1 1.33.266c.393.176.728.418 1.007.722a3.08 3.08 0 0 1 .636 1.083c.146.418.218.86.218 1.33h0zm-1.7.057c0-.456-.133-.842-.4-1.16s-.64-.475-1.12-.475c-.253 0-.497.054-.732.162a3.87 3.87 0 0 0-.684.408 5.74 5.74 0 0 0-.627.54l-.523.54.532.56c.2.184.396.348.617.494a3.59 3.59 0 0 0 .703.36c.247.094.503.142.77.142.47 0 .83-.152 1.083-.456s.38-.678.38-1.12h0zm-6.27.02l-.532-.532c-.203-.2-.418-.367-.646-.532a3.83 3.83 0 0 0-.712-.408 1.82 1.82 0 0 0-.731-.161c-.443 0-.798.16-1.064.484s-.4.7-.4 1.13c0 .47.136.845.408 1.13s.643.427 1.1.427a1.96 1.96 0 0 0 .722-.142 3.81 3.81 0 0 0 .694-.36c.222-.145.43-.3.627-.494a6.86 6.86 0 0 0 .523-.542h0zm5.53-25.617l-3.838 1.743c.186.85.278 1.5.278 1.978 0 .45-.093 1.128-.278 2.036l3.853 1.743-.6 1.362-3.735-1.64c-.342.732-.757 1.406-1.245 2.02l-1.157-.908a11.26 11.26 0 0 0 1.025-1.685L35 19.566l6.636-2.915a11.84 11.84 0 0 0-1.113-1.772L41.7 14c.4.47.83 1.147 1.3 2.036l3.706-1.6.63 1.436zm-5.2 2.33l-3.18 1.392 3.164 1.406c.088-.615.132-1.1.132-1.45 0-.322-.04-.77-.117-1.348h0z" fill="#394146"/><g stroke="#a3a18f" stroke-width="2" stroke-linecap="round" stroke-linejoin="round"><path d="M30 16v28"/><path d="M16 30h28"/></g></svg>
